usr/share/icons/biglinux-icons-material/scalable/mimetypes/application-vnd.oasis.opendocument.formula-template.svg

<svg width="24" height="24" viewBox="0 0 24 24" fill="none" xmlns="http://www.w3.org/2000/svg">
<rect x="1" y="1" width="22" height="22" rx="6.6" fill="url(#paint0_radial_32_41)"/>
<path d="M18.2222 6L12 6.00311L8.54589 11.985L7.33644 9.88889H5.78089V10.6667H6.89155L8.55056 13.539L12.455 6.77778H17.4483V7.55556H18.2261L18.2222 6ZM14.3333 8.33333C13.0407 8.33333 12 9.374 12 10.6667C12 11.9593 13.0407 13 14.3333 13C14.9346 13 15.4759 12.7682 15.8889 12.3972V13H16.6667V8.33333H15.8889V8.93611C15.4759 8.56511 14.9346 8.33333 14.3333 8.33333ZM14.3333 9.11111C15.1951 9.11111 15.8889 9.80489 15.8889 10.6667C15.8889 11.5284 15.1951 12.2222 14.3333 12.2222C13.4716 12.2222 12.7778 11.5284 12.7778 10.6667C12.7778 9.80489 13.4716 9.11111 14.3333 9.11111ZM5.00778 14.5478C5.00311 14.5478 5 14.7212 5 14.9367C5 15.1521 5.00311 15.3256 5.00778 15.3256H18.9922C18.9969 15.3256 19 15.1521 19 14.9367C19 14.7212 18.9969 14.5478 18.9922 14.5478H5.00778ZM11.23 16.8811C11.2253 16.8811 11.2222 17.0546 11.2222 17.27C11.2222 17.4854 11.2253 17.6589 11.23 17.6589H12.77C12.7747 17.6589 12.7778 17.4854 12.7778 17.27C12.7778 17.0546 12.7747 16.8811 12.77 16.8811H11.23Z" fill="#FAFAFA"/>
<defs>
<radialGradient id="paint0_radial_32_41" cx="0" cy="0" r="1" gradientUnits="userSpaceOnUse" gradientTransform="translate(17.5 1) rotate(116.565) scale(24.5967)">
<stop stop-color="#979797"/>
<stop offset="1" stop-color="#656565"/>
</radialGradient>
</defs>
</svg>

<svg xmlns="http://www.w3.org/2000/svg" width="24" height="24" fill="none"><rect width="22" height="22" x="1" y="1" fill="url(#a)" rx="6.6"/><path fill="#FAFAFA" d="M18.222 6 12 6.003l-3.454 5.982-1.21-2.096H5.781v.778h1.11l1.66 2.872 3.904-6.761h4.993v.778h.778L18.222 6Zm-3.889 2.333A2.328 2.328 0 0 0 12 10.667a2.328 2.328 0 0 0 3.889 1.73V13h.778V8.333h-.778v.603a2.318 2.318 0 0 0-1.556-.603Zm0 .778c.862 0 1.556.694 1.556 1.556 0 .861-.694 1.555-1.556 1.555a1.552 1.552 0 0 1-1.555-1.555c0-.862.694-1.556 1.555-1.556Zm-9.325 5.437a4.65 4.65 0 0 0-.008.389c0 .215.003.389.008.389h13.984c.005 0 .008-.174.008-.39a4.63 4.63 0 0 0-.008-.388H5.008Zm6.222 2.333c-.005 0-.008.174-.008.389 0 .215.003.389.008.389h1.54c.005 0 .008-.174.008-.389 0-.215-.003-.389-.008-.389h-1.54Z"/><defs><radialGradient id="a" cx="0" cy="0" r="1" gradientTransform="rotate(116.565 8.441 5.908) scale(24.5967)" gradientUnits="userSpaceOnUse"><stop stop-color="#979797"/><stop offset="1" stop-color="#656565"/></radialGradient></defs></svg>
